X: 4111
T: COLIN CAMPBELL
R: Strathspey.
%R: strathspey
B: James Kerr "Merry Melodies" v.4 p.14 #111
Z: 2016 John Chambers <jc:trillian.mit.edu>
M: C
L: 1/8
K: G
ue |\
d<B B<e d<B B>e | d<B B>d e2-e>g |\
d<B B>e d<B B>c | d>e d<B A2-A :|
|: d |\
d>eg>a b<g e<g | d>eg>a b2a>g |\
d>eg>a b<g e<g |[1 d<B B>G A2-A :|[2 d<B A>B G2G |]

%%sep 1 1 500
%%sep 1 1 500

